front/assets/images/test-maturite/niveaux/emergent.svg

<svg width="97" height="135" viewBox="0 0 97 135" fill="none" xmlns="http://www.w3.org/2000/svg">
    <path d="M76.9686 92.2619L70.7414 130.562C63.0964 133.428 50.0401 134.382 39.0694 131.766C37.7964 129.766 30.9639 92.1862 31.5758 91.6105C32.6219 90.7092 67.5406 91.127 76.9686 92.2586V92.2619Z" fill="#FED980"/>
    <path d="M0.988281 40.9779C3.91271 55.6757 19.7224 67.528 34.1471 69.8373C38.0584 70.4294 45.1837 70.7452 42.6902 64.7976C37.9927 45.2313 18.4394 35.0928 0.988281 40.9779Z" fill="#9ACF71"/>
    <path d="M94.5996 31.698C77.1023 29.9808 58.0656 43.0667 57.763 61.939C54.3451 63.5509 60.1841 65.7779 61.7499 65.8273C77.3885 68.7287 96.797 46.0866 94.5996 31.698Z" fill="#9ACF71"/>
    <path d="M33.2984 1.90436C26.1864 25.9774 39.144 36.7146 49.9075 48.807C52.5326 53.5506 53.9339 42.2937 54.4997 34.1158C55.2004 11.2796 34.1899 -1.11876 33.2984 1.90436Z" fill="#9ACF71"/>
    <path d="M91.5691 29.9549C87.6019 30.0371 83.5919 30.4418 79.8089 31.6918C73.4863 33.7609 68.0914 38.09 63.6933 42.9816C59.5024 47.7548 57.5681 53.9227 56.9628 60.1531C56.9529 60.9591 56.4266 63.4427 56.7029 64.8309C55.9036 66.2421 55.1338 67.6698 54.4068 69.1172C54.1173 66.3606 53.7884 63.6105 53.3936 60.867C53.0022 58.3143 52.5351 55.7747 52.0054 53.2516C52.5219 52.1957 52.8344 50.4029 53.4199 48.4883C54.5877 45.4356 55.0943 42.1822 55.3016 38.9321C56.1832 24.5107 50.8705 10.8293 38.4195 2.85213C37.0708 1.95408 35.6629 1.14485 34.1924 0.463907C33.9556 0.312587 33.6759 0.197452 33.3963 0.148108C32.6562 -0.299273 31.8272 0.375089 31.6759 1.15472C25.3829 20.6882 34.7484 37.0308 48.933 49.9982C49.3113 51.5871 49.6633 53.1858 49.9823 54.7911C51.5416 62.7585 52.3969 70.8837 53.0351 79.0123C52.7686 78.5418 52.4956 78.0747 52.2127 77.6142C49.9758 74.2983 47.502 71.1272 44.8144 68.1369C44.6697 67.4659 44.5217 66.7948 44.3572 66.127C43.4065 62.219 42.1499 58.3538 40.2913 54.778C39.3406 52.949 38.2156 51.222 36.9129 49.6232C35.449 47.8238 33.7845 46.156 31.9456 44.7415C28.4028 42.0177 24.2283 40.0473 19.8499 39.1295C19.8137 39.1229 19.7808 39.1163 19.7446 39.1098C19.7446 39.1098 19.738 39.1098 19.7348 39.1098C19.7249 39.1098 19.7117 39.1065 19.7019 39.1032C19.6821 39.0966 19.6262 39.0835 19.5703 39.0769C17.0998 38.5999 14.5833 38.4782 12.0733 38.5078C9.76736 38.5374 7.4515 38.7315 5.17183 39.0933C4.1093 39.2644 3.05006 39.4683 2.00069 39.7118C1.69476 39.7841 1.38554 39.8532 1.0829 39.9453C0.556564 40.1032 0.115762 40.3927 0.013785 40.9782C-0.0618751 41.4092 0.181553 41.8533 0.556564 42.0671C0.536827 43.7711 1.80002 46.7416 2.027 47.6298C3.43494 51.6397 5.82316 55.2517 8.65877 58.3932C15.9583 66.7783 25.3994 70.4166 36.3372 70.9199C37.4294 71.0022 41.3308 71.1206 43.6137 70.4363C43.7058 70.4594 43.798 70.4758 43.8934 70.4758C43.8999 70.4758 43.9065 70.4758 43.9098 70.4758C47.9395 75.0615 51.2883 80.0583 53.4923 85.2855C53.5844 86.6243 53.6732 87.9632 53.7621 89.302C46.6698 89.1606 39.6893 89.4533 31.995 90.2001C31.8437 90.2132 30.4061 90.2757 30.189 90.835C30.0607 91.1672 30.1199 91.5192 30.1693 91.858C30.2055 92.1014 30.2416 92.3449 30.2811 92.5883C30.3963 93.2988 30.5213 94.0061 30.6495 94.7134C30.9785 96.5522 31.3173 98.3845 31.6529 100.223C32.3864 104.21 33.1266 108.201 33.8635 112.188C34.5444 115.855 35.222 119.523 35.903 123.194C36.3767 125.747 36.8175 128.303 37.3208 130.853C37.6201 132.366 38.9195 132.816 39.8735 133.06C43.798 133.955 47.8244 134.28 51.841 134.441C52.364 134.461 52.9594 134.468 53.6075 134.468C56.499 134.52 59.4037 134.441 62.2755 134.083V133.948C66.6111 133.451 70.6869 132.576 71.9435 131.221C72.1277 131.053 72.4962 129.333 72.5916 128.718C73.0587 125.731 73.5258 122.744 73.9929 119.757C74.5094 116.441 75.0291 113.125 75.5456 109.809C76.0259 106.73 76.5094 103.654 76.9733 100.575C77.2002 99.072 77.4272 97.5687 77.6213 96.0588C77.7233 95.266 77.8154 94.4666 77.8878 93.6706C77.9141 93.3844 77.9338 93.0982 77.9272 92.8087C77.9174 92.4074 78.0161 91.3942 76.5621 91.1935C74.1706 90.858 71.7757 90.5356 69.3744 90.279C64.7525 89.8185 60.3873 89.5191 56.0911 89.3744C56.0516 88.5158 56.0023 87.6572 55.9398 86.7987C55.9003 86.3217 55.8641 85.8447 55.8279 85.3677C55.8575 85.1868 55.8411 84.9993 55.7851 84.815C55.4759 80.8807 55.1667 76.9464 54.8016 73.0187C55.0088 72.6963 55.2555 72.3147 55.5713 71.8574C56.6174 69.7653 57.7161 67.6994 58.8741 65.6665C61.0518 66.252 63.2952 66.6204 65.5486 66.7027C79.3319 67.1402 89.3157 55.6892 94.0692 43.8237C96.0199 39.5111 99.8884 29.2115 91.5757 29.9812L91.5691 29.9549ZM50.9659 48.6627C48.956 40.396 46.2388 32.2971 42.9164 24.4679C42.6038 23.3494 41.0709 22.8428 40.6268 24.1225C40.5117 25.037 41.1992 25.8396 41.4328 26.7015C43.8966 32.9451 46.0974 39.3039 47.854 45.7843C46.525 44.4619 45.2322 43.1033 44.0019 41.6888C34.699 30.9286 29.8995 19.4743 32.8799 5.11865C32.9062 4.52324 33.2878 3.57584 33.5707 2.66134C36.3866 4.0923 38.9886 5.91801 41.3637 7.99702C51.5942 16.6914 54.7226 31.3069 52.3048 44.1362C52.0383 45.4554 51.5975 46.7284 51.1469 47.9949C51.1205 48.166 51.0482 48.3962 50.9561 48.666L50.9659 48.6627ZM36.3997 68.6073C29.8074 68.1501 22.8006 66.8474 17.2774 62.9164C12.3891 59.5051 8.10284 55.0214 5.36263 49.6726C4.36589 47.6166 3.59613 45.4586 2.98756 43.2579C2.82637 42.8434 2.77373 42.3434 2.64544 41.8895C2.86255 41.8434 3.07966 41.7941 3.29678 41.748C5.37249 41.3302 7.46137 41.0539 9.56998 40.8993C11.5898 40.7743 13.6096 40.7611 15.6261 40.8796C16.8103 40.9651 17.9946 41.0901 19.1624 41.3269C19.1689 41.3269 19.1722 41.3269 19.1788 41.3269C19.2643 41.3467 19.3499 41.3631 19.4354 41.3796C20.5407 41.623 21.6295 41.9322 22.7019 42.2974C23.8401 42.7119 24.9487 43.1888 26.0343 43.7283C27.11 44.2843 28.1561 44.8863 29.166 45.5573C30.1002 46.1988 30.9917 46.8929 31.847 47.6363H31.8502C31.8733 47.6594 31.8963 47.6791 31.916 47.6988C32.7253 48.4291 33.5542 49.2581 34.3372 50.1331C35.1859 51.1035 35.9688 52.1233 36.6925 53.1858C37.3307 54.1497 37.903 55.1497 38.4261 56.1793C39.2353 57.8044 39.9327 59.4854 40.5314 61.1992C40.9262 62.3506 41.2913 63.5513 41.6301 64.775C34.1562 57.3011 25.2908 51.1957 15.5438 47.1791C14.7214 46.7251 13.4155 47.1034 13.6787 48.2087C14.1359 49.3403 17.363 50.1233 18.5406 50.916C26.6165 55.028 35.1135 61.1137 41.9986 68.3738C40.1597 68.7258 38.2682 68.7554 36.3964 68.6073H36.3997ZM75.9502 93.4074C75.8449 93.868 75.7495 94.3285 75.6574 94.7923C75.3581 96.3088 75.1081 97.8319 74.8581 99.3549C74.6114 100.878 74.3712 102.401 74.1278 103.924C73.6311 107.076 73.1376 110.227 72.6442 113.378C72.1376 116.609 71.6343 119.842 71.1277 123.076C70.7724 125.356 70.4204 127.635 70.0586 129.915C68.2329 130.856 65.3611 131.445 62.2623 131.784V131.744C61.0485 131.902 59.8247 132.007 58.5944 132.073C57.8576 132.109 57.1273 132.139 56.4102 132.155C54.7325 132.188 53.0581 132.159 51.41 132.093C49.308 132.017 47.2092 131.866 45.1204 131.609C43.2618 131.376 41.4163 131.06 39.5939 130.622C39.5939 130.589 39.5939 130.557 39.5873 130.52C39.1597 128.214 38.732 125.908 38.3077 123.606C37.6267 119.934 36.9491 116.263 36.2681 112.592C35.5346 108.632 34.7977 104.671 34.0608 100.71C33.6957 98.7431 33.3273 96.7726 32.9555 94.8055C32.8009 93.9864 32.643 93.1706 32.4753 92.3547C46.9527 91.2396 61.5222 91.2494 75.9469 93.4107L75.9502 93.4074ZM91.3322 44.2481C87.2301 53.8503 79.3154 63.2322 68.2789 64.2783C65.4696 64.5612 62.8084 64.2388 60.078 63.5743C60.5123 62.8506 60.9531 62.1335 61.407 61.4229C66.2131 53.7648 73.0291 47.5705 81.128 43.4816C82.4997 42.8369 81.5425 40.7842 80.1806 41.3829C71.5521 45.6725 64.2788 52.4523 59.1866 60.6104C59.8642 54.6661 61.5583 48.7614 65.6604 44.2185C73.187 35.9288 81.4734 31.9089 92.8092 32.2708C96.8357 32.3694 92.227 42.2579 91.3322 44.2514V44.2481Z" fill="#0D0C21"/>
</svg>

<svg xmlns="http://www.w3.org/2000/svg" width="97" height="135" fill="none"><path fill="#FED980" d="m76.969 92.262-6.228 38.3c-7.645 2.866-20.7 3.82-31.672 1.204-1.273-2-8.105-39.58-7.493-40.155 1.046-.902 35.965-.484 45.393.648z"/><path fill="#9ACF71" d="M.988 40.978c2.925 14.698 18.734 26.55 33.16 28.86 3.91.591 11.036.907 8.542-5.04C37.993 45.23 18.44 35.093.988 40.978m93.612-9.28c-17.498-1.717-36.534 11.369-36.837 30.241-3.418 1.612 2.421 3.839 3.987 3.888 15.638 2.902 35.047-19.74 32.85-34.129M33.298 1.904c-7.112 24.073 5.846 34.81 16.61 46.903 2.625 4.744 4.026-6.513 4.592-14.691C55.2 11.28 34.19-1.12 33.298 1.904"/><path fill="#0D0C21" d="M91.57 29.955c-3.968.082-7.978.487-11.761 1.737-6.323 2.069-11.718 6.398-16.116 11.29-4.19 4.773-6.125 10.94-6.73 17.171-.01.806-.536 3.29-.26 4.678a98 98 0 0 0-2.296 4.286c-.29-2.756-.619-5.507-1.013-8.25a141 141 0 0 0-1.389-7.615c.517-1.056.83-2.85 1.415-4.764 1.168-3.052 1.674-6.306 1.882-9.556.881-14.421-4.431-28.103-16.882-36.08A31.6 31.6 0 0 0 34.192.464a2.2 2.2 0 0 0-.796-.316c-.74-.447-1.569.227-1.72 1.007-6.293 19.533 3.072 35.876 17.257 48.843q.568 2.385 1.05 4.793c1.559 7.968 2.414 16.093 3.052 24.221q-.399-.706-.822-1.398a87 87 0 0 0-7.399-9.477 71 71 0 0 0-.457-2.01c-.95-3.908-2.207-7.773-4.066-11.349a30 30 0 0 0-3.378-5.155c-1.464-1.8-3.128-3.467-4.967-4.881-3.543-2.724-7.718-4.695-12.096-5.612l-.105-.02h-.01a.1.1 0 0 1-.033-.007 1 1 0 0 0-.132-.026c-2.47-.477-4.987-.599-7.497-.57a48 48 0 0 0-6.901.586A47 47 0 0 0 2 39.712c-.306.072-.615.141-.918.233-.526.158-.967.448-1.07 1.033-.075.431.169.875.544 1.09-.02 1.703 1.243 4.674 1.47 5.562 1.408 4.01 3.796 7.622 6.632 10.763 7.3 8.385 16.74 12.024 27.678 12.527 1.092.082 4.994.2 7.277-.484.092.023.184.04.28.04h.016c4.03 4.585 7.378 9.582 9.582 14.81q.137 2.007.27 4.016c-7.092-.141-14.073.151-21.767.898-.151.013-1.589.076-1.806.635-.128.332-.07.684-.02 1.023q.054.365.112.73.174 1.065.369 2.125c.329 1.84.667 3.672 1.003 5.51.733 3.987 1.474 7.978 2.21 11.965l2.04 11.006c.474 2.553.915 5.109 1.418 7.659.3 1.513 1.599 1.963 2.553 2.207 3.924.895 7.95 1.22 11.967 1.381.523.02 1.118.027 1.767.027 2.891.052 5.796-.027 8.668-.385v-.135c4.335-.497 8.41-1.372 9.667-2.727.185-.168.553-1.888.649-2.503l1.4-8.961 1.554-9.948c.48-3.079.963-6.155 1.427-9.234.227-1.503.454-3.006.648-4.516.102-.793.194-1.592.267-2.388.026-.287.046-.573.04-.862-.01-.402.088-1.415-1.366-1.615a220 220 0 0 0-7.188-.915c-4.621-.46-8.987-.76-13.283-.905a97 97 0 0 0-.151-2.575q-.059-.715-.112-1.431a1.2 1.2 0 0 0-.043-.553c-.31-3.934-.618-7.869-.983-11.796a38 38 0 0 1 .77-1.162 130 130 0 0 1 3.302-6.19c2.178.585 4.421.953 6.675 1.036 13.783.437 23.767-11.014 28.52-22.88 1.95-4.312 5.82-14.611-2.493-13.842zM50.965 48.663c-2.01-8.267-4.727-16.366-8.05-24.195-.312-1.119-1.845-1.625-2.29-.346-.114.915.573 1.718.807 2.58 2.464 6.243 4.664 12.602 6.421 19.082a78 78 0 0 1-3.852-4.095c-9.303-10.76-14.103-22.215-11.122-36.57.026-.596.408-1.543.69-2.458 2.817 1.431 5.419 3.257 7.794 5.336 10.23 8.694 13.359 23.31 10.94 36.14-.266 1.318-.707 2.591-1.157 3.858a4.4 4.4 0 0 1-.19.671zM36.4 68.607c-6.593-.457-13.6-1.76-19.123-5.69-4.888-3.412-9.174-7.896-11.914-13.244-.997-2.056-1.767-4.214-2.375-6.415-.162-.415-.214-.915-.343-1.369l.652-.141a50 50 0 0 1 6.273-.849c2.02-.125 4.04-.138 6.056-.02 1.184.086 2.369.211 3.536.448h.017q.127.029.256.053c1.106.243 2.195.552 3.267.917q1.706.623 3.332 1.431a33 33 0 0 1 3.132 1.83 30 30 0 0 1 2.681 2.078h.003l.066.063c.81.73 1.638 1.56 2.421 2.434q1.272 1.457 2.355 3.053a30 30 0 0 1 1.734 2.993 43 43 0 0 1 2.105 5.02c.395 1.152.76 2.352 1.1 3.576-7.475-7.474-16.34-13.58-26.087-17.596-.823-.454-2.129-.076-1.865 1.03.457 1.131 3.684 1.914 4.862 2.707 8.075 4.112 16.573 10.198 23.458 17.458-1.84.352-3.73.381-5.603.233zm39.55 24.8q-.156.691-.293 1.385c-.299 1.517-.549 3.04-.799 4.563-.247 1.523-.487 3.046-.73 4.569q-.744 4.728-1.484 9.454l-1.516 9.698c-.356 2.28-.708 4.559-1.07 6.839-1.825.941-4.697 1.53-7.796 1.869v-.04a49 49 0 0 1-3.668.329 83 83 0 0 1-2.184.082 84 84 0 0 1-5-.062 73 73 0 0 1-6.29-.484 51 51 0 0 1-5.526-.987q.002-.048-.007-.102-.642-3.46-1.28-6.914l-2.039-11.014q-1.1-5.94-2.207-11.882-.548-2.952-1.105-5.904-.231-1.228-.48-2.451c14.477-1.115 29.046-1.106 43.47 1.056zm15.382-49.159C87.23 53.85 79.315 63.232 68.28 64.278c-2.81.283-5.47-.04-8.201-.704a91 91 0 0 1 1.329-2.151 49.7 49.7 0 0 1 19.721-17.941c1.372-.645.415-2.698-.947-2.1-8.629 4.29-15.902 11.07-20.994 19.228.677-5.944 2.371-11.849 6.473-16.391 7.527-8.29 15.813-12.31 27.15-11.948 4.026.098-.583 9.987-1.478 11.98z"/></svg>
